X: 19898
T: Jig For John
R: jig
M: 6/8
K: Gmajor
|:B3 BGE|cGE BGE|B3 BAG|FGA d2A|
B3 BGE|cGE BGE|DFA DFA|1 BAF G2A:|2 BAF G3||
|:G2B A2c|Bdg ecA|dBG dAF|GFE DED|
FGA GAB|ABc Bdg|ecA dBG|1 AGF GAB:|2 AGF GAc||

